X: 15954
T: Granny's Bonnet
R: reel
M: 4/4
K: Dmixolydian
A3G FDGE|FDGE FDC2|BAGE FDFA|BdcA BAGc|
AAGE FDGE|FDGE FDCB,|~A,3B, CDEG|F/2E/2DCA, G,3G:|
|:~B3d cBAG|FDAD BDAD|~B3d cABc|dedc BAGE|
(3DGB dB ceBc|ADED ADFD|CB,CD EFGB|AGF/2E/2D EFGA:|

